X:1
T:Title
%%score 1 2 3 4
L:1/8
M:3/2
K:C
V:1 treble nm="Choir Aahs"
V:2 treble nm="Choir Aahs"
V:3 treble nm="Choir Aahs"
V:4 bass nm="Choir Aahs"
V:1
 c4 | G8 c2 B2 | c3 d e4 c4 | c8 c4 | B8 e4 | g8 d4 | e4 d4 e2 d2 | d8 d2 c2 | B8 G4 | c3 d e4 c4 | %10
 B8 c4 | e4 A4 c4 | B8 c4 | e3 d c4 c4 | c3 d e4 c2 d2 | e3 d c4 B4 |[M:2/2] c8 |] %17
V:2
 E4 | E3 F E4 G2 F2 | E4 C4 G4 | A8 A4 | G8 C4 | E8 G4 | G4 F4 G2 F2 | G8 F2 E2 | D8 E4 | %9
 E3 F G4 F2 E2 | D8 E2 F2 | G4 A4 G4 | G8 G4 | F4 G4 F4 | A4 G4 A4 | G8 G4 |[M:2/2] E8 |] %17
V:3
 C4 | C3 D C4 E2 D2 | E4 G,4 G4 | F2 E2 D2 C2 D2 E2 | D8[K:bass] G,4 | C8 B,4 | C4 B,4 A,4 | %7
 G,3 A, B,4 A,4 | G,8[K:treble] C4 | E4 C4 E2 F2 | G8 E2 D2 | C4 (3D2 E2 F2 E4 | D8 G,4 | %13
 C3 D E4 D2 C2 | E3 F G4 E2 D2 | C3 D E4 D4 |[M:2/2] C8 |] %17
V:4
 C,4 | C,8 G,4 | C,8 C,4 | C4 F,2 E,2 D,2 C,2 | G,8 C,4 | C,8 G,4 | C,4 D,4 E,2 F,2 | G,8 D,4 | %8
 G,8 C,4 | C,8 C4 | B,3 A, G,4 C4 | F,3 E, D,4 C,4 | G,8 G,4 | F,4 E,4 F,4 | C,8 E,2 F,2 | %15
 G,8 G,4 |[M:2/2] C,8 |] %17

